rospo-dark/16x16/panel/zim-panel.svg

<svg height="22" width="22" xmlns="http://www.w3.org/2000/svg"><path d="m11.000964 3c-4.4319998 0-7.9999998 3.568-7.9999998 8 0 .836914.1289835 1.643302.3652344 2.400391.00427-.01736.00533-.03544.00977-.05274.1448857-.564818.4243066-1.150295.9238277-1.613276.5874148-.544263 1.2707705-.691504 1.9785157-.703125.1171279-.247514.2110563-.510942.4453124-.683594.097936-.07218.2055054-.0427.3105469-.08984.012974-.02719.00592-.02517.021484-.05469.2834476-.5375246.6536754-.9432199 1.1718714-1.5273448.7070089-.7969817 1.8049133-1.5360539 2.8222653-2.1972656 1.017832-.6616254 1.808367-1.1262957 2.132813-1.2929687-.104107.0538886.313386-.1789632.714843-.4042969.333802-.1873588.76781-.4203979 1.201172-.6484375-1.198257-.7142895-2.595711-1.1328125-4.097656-1.1328125zm7.365234 4.8652343c-.292245.3938207-.589189.7853991-.824218 1.0859376-.275681.352452-.535753.6842098-.501954.6386718v.00195c-.214357.2877997-.799545.9875263-1.615234 1.8769563-.814177.887781-1.721787 1.846335-2.626953 2.414062-.596127.373793-1.04655.493196-1.52539.675782-.07585.423682-.263229.823827-.634766 1.097656-.229581.169202-.508727.153432-.7753907.195312-.1252084.453679-.3431688.907406-.7363281 1.308594l-.019531.01953-.019531.01953c-.5422767.496323-1.2053449.719805-1.8222656.791015l-.054687.0059h-.056641c-.015928.000068-.025276-.000048-.041016 0 1.1501059.63823 2.4750092 1.003869 3.8886714 1.003869 4.432 0 8-3.568 8-8 0-1.114223-.226708-2.1727251-.634766-3.1347657z" fill="#d3dae3" opacity=".3"/><path d="m18.174792 4.0078125c-.308799-.034509-.602617.082641-.884766.1816406v.00391c-.441647.1726001-.96777.4269594-1.484374.6933594-.516607.2664-1.022629.543725-1.417969.765625s-.691808.393775-.746094.421875c-.175275.09-1.05385.5966875-2.046875 1.2421875-.993024.6453962-2.075077 1.4101337-2.6191404 2.0234337-.2693333.3035999-.4799237.5435282-.6523438.7617193.3379001.109938.6464834.317035.8691406.61914l1.8183596 2.466797c.100623.136527.171308.286022.226562.439453.289536-.145687.603961-.325096 1.029297-.591797.699448-.4387 1.627031-1.375487 2.421875-2.242187.794844-.8667003 1.431891-1.6418284 1.548828-1.7988284.03934-.053.245458-.3103031.517578-.6582031.27212-.348.615435-.7953063.951172-1.2539063.335737-.4587.663028-.9290781.904297-1.3300781.120634-.2006.220337-.3831687.289063-.5429688.06873-.1596998.116849-.2900937.09766-.4335937-.03191-.2386-.152077-.3787719-.222656-.4511719-.0016-.0014-.0095-.011719-.0098-.011719-.08409-.1012-.177816-.1649906-.275391-.2128907-.106335-.05135-.21152-.080294-.314453-.091797zm-10.2890622 7.0019535c-.193598-.02931-.3975555.01669-.5683594.142578-.3416077.251771-.4138809.728705-.1621093 1.070312l1.8164062 2.466797c.2517716.341608.7306579.413881 1.0722657.162109.341608-.251771.413881-.728704.162109-1.070312l-1.818359-2.466797c-.1258858-.170804-.3083551-.275377-.5019532-.304687zm-1.8476562 1.023437c-.4159261.06177-.8229304.217195-1.0585938.435547-.3232455.2996-.5264133.704553-.6347656 1.126953-.1779677.6935-.189919 1.690434-.3261719 2.427734-.067677.366-.376852.935629-.953125 1.673828-.1471888.247301 0 .279297 0 .279297.082616.058.2331947-.000203.3085938-.0332 1.3334972-1.096603 2.2144041-.940568 3.7753906-.947268.4591565-.053.9132923-.216257 1.2617187-.535157.2263837-.231007.3513503-.433616.4414063-.634765-.2641533-.119595-.5043602-.297132-.6855469-.542969l-1.8183594-2.466797c-.1742585-.236437-.2706998-.506999-.3105468-.783203z" fill="#d3dae3" fill-rule="evenodd"/></svg>

<svg xmlns="http://www.w3.org/2000/svg" width="22" height="22" version="1.1">
 <defs>
  <style id="current-color-scheme" type="text/css">
   .ColorScheme-Text { color:#d3dae3; } .ColorScheme-Highlight { color:#5294e2; }
  </style>
 </defs>
 <path style="fill:currentColor;opacity:0.3" class="ColorScheme-Text" d="m 11.000964,3 c -4.4319998,0 -7.9999998,3.568 -7.9999998,8 0,0.836914 0.1289835,1.643302 0.3652344,2.400391 0.00427,-0.01736 0.00533,-0.03544 0.00977,-0.05274 0.1448857,-0.564818 0.4243066,-1.150295 0.9238277,-1.613276 0.5874148,-0.544263 1.2707705,-0.691504 1.9785157,-0.703125 0.1171279,-0.247514 0.2110563,-0.510942 0.4453124,-0.683594 0.097936,-0.07218 0.2055054,-0.0427 0.3105469,-0.08984 0.012974,-0.02719 0.00592,-0.02517 0.021484,-0.05469 C 7.3391029,9.6656014 7.7093307,9.2599061 8.2275267,8.6757812 8.9345356,7.8787995 10.03244,7.1397273 11.049792,6.4785156 12.067624,5.8168902 12.858159,5.3522199 13.182605,5.1855469 13.078498,5.2394355 13.495991,5.0065837 13.897448,4.78125 14.23125,4.5938912 14.665258,4.3608521 15.09862,4.1328125 13.900363,3.418523 12.502909,3 11.000964,3 Z m 7.365234,4.8652343 C 18.073953,8.259055 17.777009,8.6506334 17.54198,8.9511719 17.266299,9.3036239 17.006227,9.6353817 17.040026,9.5898437 l 0,0.00195 c -0.214357,0.2877997 -0.799545,0.9875263 -1.615234,1.8769563 -0.814177,0.887781 -1.721787,1.846335 -2.626953,2.414062 -0.596127,0.373793 -1.04655,0.493196 -1.52539,0.675782 -0.07585,0.423682 -0.263229,0.823827 -0.634766,1.097656 -0.229581,0.169202 -0.508727,0.153432 -0.7753907,0.195312 -0.1252084,0.453679 -0.3431688,0.907406 -0.7363281,1.308594 l -0.019531,0.01953 -0.019531,0.01953 c -0.5422767,0.496323 -1.2053449,0.719805 -1.8222656,0.791015 l -0.054687,0.0059 -0.056641,0 c -0.015928,6.8e-5 -0.025276,-4.8e-5 -0.041016,0 C 8.2623985,18.634361 9.5873018,19 11.000964,19 c 4.432,0 8,-3.568 8,-8 0,-1.114223 -0.226708,-2.1727251 -0.634766,-3.1347657 z"/>
 <path style="fill:currentColor;fill-rule:evenodd" class="ColorScheme-Text" d="m 18.174792,4.0078125 c -0.308799,-0.034509 -0.602617,0.082641 -0.884766,0.1816406 l 0,0.00391 c -0.441647,0.1726001 -0.96777,0.4269594 -1.484374,0.6933594 -0.516607,0.2664 -1.022629,0.543725 -1.417969,0.765625 -0.39534,0.2219 -0.691808,0.393775 -0.746094,0.421875 -0.175275,0.09 -1.05385,0.5966875 -2.046875,1.2421875 C 10.60169,7.9618062 9.519637,8.7265437 8.9755736,9.3398437 8.7062403,9.6434436 8.4956499,9.8833719 8.3232298,10.101563 c 0.3379001,0.109938 0.6464834,0.317035 0.8691406,0.61914 L 11.01073,13.1875 c 0.100623,0.136527 0.171308,0.286022 0.226562,0.439453 0.289536,-0.145687 0.603961,-0.325096 1.029297,-0.591797 0.699448,-0.4387 1.627031,-1.375487 2.421875,-2.242187 0.794844,-0.8667003 1.431891,-1.6418284 1.548828,-1.7988284 0.03934,-0.053 0.245458,-0.3103031 0.517578,-0.6582031 0.27212,-0.348 0.615435,-0.7953063 0.951172,-1.2539063 0.335737,-0.4587 0.663028,-0.9290781 0.904297,-1.3300781 0.120634,-0.2006 0.220337,-0.3831687 0.289063,-0.5429688 0.06873,-0.1596998 0.116849,-0.2900937 0.09766,-0.4335937 -0.03191,-0.2386 -0.152077,-0.3787719 -0.222656,-0.4511719 -0.0016,-0.0014 -0.0095,-0.011719 -0.0098,-0.011719 C 18.680516,4.2112997 18.58679,4.1475091 18.489215,4.099609 18.38288,4.048259 18.277695,4.019315 18.174762,4.007812 Z M 7.8857298,11.009766 c -0.193598,-0.02931 -0.3975555,0.01669 -0.5683594,0.142578 -0.3416077,0.251771 -0.4138809,0.728705 -0.1621093,1.070312 l 1.8164062,2.466797 c 0.2517716,0.341608 0.7306579,0.413881 1.0722657,0.162109 0.341608,-0.251771 0.413881,-0.728704 0.162109,-1.070312 L 8.387683,11.314453 C 8.2617972,11.143649 8.0793279,11.039076 7.8857298,11.009766 Z m -1.8476562,1.023437 c -0.4159261,0.06177 -0.8229304,0.217195 -1.0585938,0.435547 -0.3232455,0.2996 -0.5264133,0.704553 -0.6347656,1.126953 -0.1779677,0.6935 -0.189919,1.690434 -0.3261719,2.427734 -0.067677,0.366 -0.376852,0.935629 -0.953125,1.673828 -0.1471888,0.247301 0,0.279297 0,0.279297 0.082616,0.058 0.2331947,-2.03e-4 0.3085938,-0.0332 1.3334972,-1.096603 2.2144041,-0.940568 3.7753906,-0.947268 0.4591565,-0.053 0.9132923,-0.216257 1.2617187,-0.535157 C 8.6375041,16.22993 8.7624707,16.027321 8.8525267,15.826172 8.5883734,15.706577 8.3481665,15.52904 8.1669798,15.283203 L 6.3486204,12.816406 C 6.1743619,12.579969 6.0779206,12.309407 6.0380736,12.033203 Z"/>
</svg>
